!! 00000] TT[WS
!!!OTL: Sijieme xiang qingren
!!!ARE: Asia, China, Shanxi Ningwu
!! Ethnic Group: Han
!! WI, 145
!!!SCT: J0174
!!!YEM: Copyright 1995, estate of Helmut Schaffrath.
**kern
*ICvox
*Ivox
!! Mixed meters:  2/4; 3/4
*MZ
*k[f#c#g#d#]
*E:
{8e
8c#
8b
8g#
=1
2f#
=2
8b
8c#
8e
8c#
=3
8f#
8c#
8e
8c#
=4
2B}
=5
{8c#
16c#
16c#
8e
8B
=6
2c#
=7
8f#
16f#
16g#
8c#
8e
=8
8g#
8c#
8e
8c#
=9
2B}
=10
{8c#
16c#
16c#
8e
8B
=11
2c#
=12
8g#
16g#
16f#
8d#
8c#
=13
2B}
=14
{8.b
16ee
8cc#
8b
=15
4a
8b
8g#
=16
8f#
8b
8g#
8f#
=17
8b
8c#
2e}
=18
*M2/4
{8b
8c#
4e
=19
8c#
8f#
4e}
==
!!!AGN: Xiaodiao. Qingge
!!!ONB: ESAC (Essen Associative Code) Database: CHINA
!!!AMT: irregular
!!!AIN: vox
!!!EED: Helmut Schaffrath
!!!EEV: 1.0
*-
